packages/foundations/assets/icons/functional/images/notification/exclamation_mark_circle_20.svg

<svg width="20" height="20" viewBox="0 0 20 20" fill="none" xmlns="http://www.w3.org/2000/svg">
<g clip-path="url(#clip0_187_178)">
<path fill-rule="evenodd" clip-rule="evenodd" d="M10 2C14.4062 2 18 5.5938 18 10C18 14.4062 14.4062 18 10 18C5.5938 18 2 14.4062 2 10C2 5.5938 5.5938 2 10 2ZM10 4C6.6875 4 4 6.6875 4 10C4 13.3125 6.6875 16 10 16C13.3125 16 16 13.3125 16 10C16 6.6875 13.3125 4 10 4ZM10 12C10.5625 12 11 12.4444 11 12.9841C11 13.5555 10.5625 14 10 14C9.4688 14 9 13.5555 9 12.9841C9 12.4444 9.4688 12 10 12ZM11 6V11H9V6H11Z" fill="#1A1C1F"/>
</g>
<defs>
<clipPath id="clip0_187_178">
<rect width="20" height="20" fill="white"/>
</clipPath>
</defs>
</svg>

<svg xmlns="http://www.w3.org/2000/svg" width="20" height="20" fill="none"><g clip-path="url(#a)"><path fill="#1A1C1F" fill-rule="evenodd" d="M10 2c4.406 0 8 3.594 8 8s-3.594 8-8 8-8-3.594-8-8 3.594-8 8-8m0 2c-3.312 0-6 2.688-6 6 0 3.313 2.688 6 6 6 3.313 0 6-2.687 6-6 0-3.312-2.687-6-6-6m0 8c.563 0 1 .444 1 .984A.995.995 0 0 1 10 14c-.531 0-1-.444-1-1.016 0-.54.469-.984 1-.984m1-6v5H9V6z" clip-rule="evenodd"/></g><defs><clipPath id="a"><path fill="#fff" d="M0 0h20v20H0z"/></clipPath></defs></svg>
